CSETWebApi/CSETWeb_Api/CSETWeb_ApiCore/Diagram/src/main/webapp/img/lib/mscae/Visual_Studio_Team_Services_CodePlex_source.svg

<svg xmlns="http://www.w3.org/2000/svg" width="30" height="22.593" viewBox="-0.5 0.5 30 22.593"><path d="M29.5 23.092H16.44l7.49-7.444V8.074L16.44.547H29.5v22.545z" fill="#804998"/><path d="M29.5 23.092H16.44l7.49-7.444V8.074L16.44.547H29.5v22.545z" opacity=".4" fill="#fff"/><path d="M10.754 15.613c-2.078 0-3.763-1.686-3.763-3.764v-.107c0-2.078 1.686-3.763 3.763-3.763h3.763V.5h-3.87A11.14 11.14 0 0 0-.5 11.636v.32c0 6.15 4.986 11.136 11.148 11.136h3.87v-7.48h-3.764v-.001z" fill="#3e3e3e"/></svg>

<?xml version="1.0" encoding="UTF-8" standalone="no"?>
<svg
   xmlns:dc="http://purl.org/dc/elements/1.1/"
   xmlns:cc="http://creativecommons.org/ns#"
   xmlns:rdf="http://www.w3.org/1999/02/22-rdf-syntax-ns#"
   xmlns:svg="http://www.w3.org/2000/svg"
   xmlns="http://www.w3.org/2000/svg"
   xmlns:sodipodi="http://sodipodi.sourceforge.net/DTD/sodipodi-0.dtd"
   xmlns:inkscape="http://www.inkscape.org/namespaces/inkscape"
   version="1.1"
   id="Layer_1"
   x="0px"
   y="0px"
   width="30"
   height="22.593"
   viewBox="-0.5 0.5 30 22.593"
   enable-background="new -0.5 0.5 30 30"
   xml:space="preserve"
   inkscape:version="0.91 r13725"
   sodipodi:docname="Visual Studio Team Services - CodePlex source_COLOR.svg"><metadata
     id="metadata13"><rdf:RDF><cc:Work
         rdf:about=""><dc:format>image/svg+xml</dc:format><dc:type
           rdf:resource="http://purl.org/dc/dcmitype/StillImage" /><dc:title></dc:title></cc:Work></rdf:RDF></metadata><defs
     id="defs11" /><sodipodi:namedview
     pagecolor="#ffffff"
     bordercolor="#666666"
     borderopacity="1"
     objecttolerance="10"
     gridtolerance="10"
     guidetolerance="10"
     inkscape:pageopacity="0"
     inkscape:pageshadow="2"
     inkscape:window-width="1920"
     inkscape:window-height="1018"
     id="namedview9"
     showgrid="false"
     fit-margin-top="0"
     fit-margin-left="0"
     fit-margin-right="0"
     fit-margin-bottom="0"
     inkscape:zoom="26.765104"
     inkscape:cx="15"
     inkscape:cy="11.001"
     inkscape:window-x="-8"
     inkscape:window-y="-8"
     inkscape:window-maximized="1"
     inkscape:current-layer="Layer_1" /><path
     d="M 29.5,23.092 16.441,23.092 23.932,15.648 23.932,8.074 16.441,0.547 29.5,0.547 29.5,23.092 Z"
     id="path3"
     inkscape:connector-curvature="0"
     style="fill:#804998" /><path
     d="M 29.5,23.092 16.441,23.092 23.932,15.648 23.932,8.074 16.441,0.547 29.5,0.547 29.5,23.092 Z"
     id="path5"
     inkscape:connector-curvature="0"
     style="opacity:0.4;fill:#ffffff" /><path
     d="M 10.754,15.613 C 8.676,15.613 6.991,13.927 6.991,11.849 L 6.991,11.742 C 6.991,9.664 8.677,7.979 10.754,7.979 L 14.517,7.979 14.517,0.5 10.647,0.5 C 4.486,0.5 -0.5,5.486 -0.5,11.636 L -0.5,11.957 C -0.5,18.106 4.486,23.093 10.648,23.093 L 14.518,23.093 14.518,15.614 10.754,15.614 10.754,15.613 Z"
     id="path7"
     inkscape:connector-curvature="0"
     style="fill:#3e3e3e" /></svg>
